images/envelope.svg

<svg height="25" viewBox="0 0 33 25" width="33" xmlns="http://www.w3.org/2000/svg"><g fill="none" transform=""><path d="m28.9714294 0h-24.93605c-2.22594532 0-4.0353794 1.80125068-4.0353794 4.01712887v16.96574223c0 2.2158782 1.80943408 4.0171289 4.0353794 4.0171289h24.9292219c2.2259454 0 4.0353794-1.8012507 4.0353794-4.0171289v-16.95894505c.0068281-2.2158782-1.802606-4.02392605-4.0285513-4.02392605zm2.191805 20.9828711c0 1.2030995-.9832396 2.1818924-2.191805 2.1818924h-24.93605c-1.20856541 0-2.19180506-.9787929-2.19180506-2.1818924v-16.95894505c0-1.20309951.98323965-2.18189234 2.19180506-2.18189234h24.9292219c1.2085654 0 2.1918051.97879283 2.1918051 2.18189234v16.95894505z" fill="#4bccef"/><path d="m21.4093857 12.7847847 8.2626342-7.18244713c.3844712-.33879468.4194231-.91474564.0699039-1.29419567-.3495192-.37267415-.9437019-.40655362-1.3351634-.06775894l-11.3943264 9.91313224-2.2229422-1.9243537c-.0069904-.0067759-.0139808-.0135518-.0139808-.0203277-.0489327-.0474313-.0978654-.0880866-.1537884-.128742l-9.04555731-7.84648473c-.39146152-.33879468-.98564418-.30491521-1.3351634.07453483-.34951921.37945003-.31456729.95540099.07689423 1.29419567l8.36049958 7.24343023-8.32554766 7.5551213c-.37748075.3455706-.3984519.9215215-.04194231 1.2941957.18874038.189725.44039421.2913634.69204805.2913634.23068268 0 .46136536-.0813107.64311535-.2439322l8.45137457-7.6635356 2.2928461 1.9853368c.18175.1558456.4054423.2303804.6291346.2303804s.454375-.0813107.6291346-.2371563l2.3557595-2.0463198 8.4024419 7.7380704c.18175.1693974.419423.2507081.6501057.2507081.2516539 0 .4963173-.0948625.6850577-.2845875.3565096-.3658983.3425288-.9486251-.0349519-1.2941957z" fill="#212d3c"/></g></svg>

<?xml version="1.0" encoding="UTF-8"?>
<svg width="33px" height="25px" viewBox="0 0 33 25" version="1.1" xmlns="http://www.w3.org/2000/svg" xmlns:xlink="http://www.w3.org/1999/xlink">
    <!-- Generator: sketchtool 50.2 (55047) - http://www.bohemiancoding.com/sketch -->
    <title>C08BC714-C619-43EB-9023-B77D050DA2E9</title>
    <desc>Created with sketchtool.</desc>
    <defs></defs>
    <g id="Future-Project-Desktop" stroke="none" stroke-width="1" fill="none" fill-rule="evenodd">
        <g id="Future-Camp" transform="translate(-166.000000, -2335.000000)" fill-rule="nonzero">
            <g id="future-camp/tour" transform="translate(0.000000, 1588.000000)">
                <g id="side-data" transform="translate(164.000000, 397.000000)">
                    <g id="envelope" transform="translate(2.000000, 350.000000)">
                        <path d="M28.9714294,0 L4.0353794,0 C1.80943408,0 0,1.80125068 0,4.01712887 L0,20.9828711 C0,23.1987493 1.80943408,25 4.0353794,25 L28.9646013,25 C31.1905467,25 32.9999807,23.1987493 32.9999807,20.9828711 L32.9999807,4.02392605 C33.0068088,1.80804785 31.1973747,0 28.9714294,0 Z M31.1632344,20.9828711 C31.1632344,22.1859706 30.1799948,23.1647635 28.9714294,23.1647635 L4.0353794,23.1647635 C2.82681399,23.1647635 1.84357434,22.1859706 1.84357434,20.9828711 L1.84357434,4.02392605 C1.84357434,2.82082654 2.82681399,1.84203371 4.0353794,1.84203371 L28.9646013,1.84203371 C30.1731667,1.84203371 31.1564064,2.82082654 31.1564064,4.02392605 L31.1564064,20.9828711 L31.1632344,20.9828711 Z" id="Shape" fill="#4BCCEF"></path>
                        <path d="M21.4093857,12.7847847 L29.6720199,5.60233757 C30.0564911,5.26354289 30.091443,4.68759193 29.7419238,4.3081419 C29.3924046,3.93546775 28.7982219,3.90158828 28.4067604,4.24038296 L17.012434,14.1535152 L14.7894918,12.2291615 C14.7825014,12.2223856 14.775511,12.2156097 14.775511,12.2088338 C14.7265783,12.1614025 14.6776456,12.1207472 14.6217226,12.0800918 L5.57616529,4.23360707 C5.18470377,3.89481239 4.59052111,3.92869186 4.24100189,4.3081419 C3.89148268,4.68759193 3.9264346,5.26354289 4.31789612,5.60233757 L12.6783957,12.8457678 L4.35284804,20.4008891 C3.97536729,20.7464597 3.95439614,21.3224106 4.31090573,21.6950848 C4.49964611,21.8848098 4.75129994,21.9864482 5.00295378,21.9864482 C5.23363646,21.9864482 5.46431914,21.9051375 5.64606913,21.742516 L14.0974437,14.0789804 L16.3902898,16.0643172 C16.5720398,16.2201628 16.7957321,16.2946976 17.0194244,16.2946976 C17.2431167,16.2946976 17.4737994,16.2133869 17.648559,16.0575413 L20.0043185,14.0112215 L28.4067604,21.7492919 C28.5885104,21.9186893 28.8261834,22 29.0568661,22 C29.30852,22 29.5531834,21.9051375 29.7419238,21.7154125 C30.0984334,21.3495142 30.0844526,20.7667874 29.7069719,20.4212168 L21.4093857,12.7847847 Z" id="Shape" fill="#212D3C"></path>
                    </g>
                </g>
            </g>
        </g>
    </g>
</svg>
